X: 21117
T: Karate Kid, The
R: reel
M: 4/4
K: Gmajor
|:eAAB c3 d|edef g2 ab|a e3 e2 ab|a e3 e3 d|
eAAB cBcd|edef g2 ab|a e3 eged|cABG A2 z2:|
a3 g baag|e2 ge a g3|e a3 abag|edeg d3 g|
a3 g baag|e2 ge a g3|a e3 eged|cABG A2 z2|
a3 g baag|e2 ge a g3|e a3 abag|edeg dgge|
abc'b b a3|(3efg ab a g3|a e3 eged|cABG A2 z2|

